icons/home-garage.svg

<svg width="24" height="24" viewBox="0 0 24 24" fill="none" xmlns="http://www.w3.org/2000/svg">
<path fill-rule="evenodd" clip-rule="evenodd" d="M13.2447 4.69499C12.5299 4.0517 11.4629 4.0517 10.7481 4.69499L10.7419 4.70059L5.7607 9.08398C5.17991 9.67247 4.79639 10.4826 4.79639 11.2375V18.3375C4.79639 19.1233 5.4606 19.7875 6.2464 19.7875H6.79639V17.5375V15.9375C6.79639 14.7233 7.7322 13.7875 8.94641 13.7875H15.1464C16.3607 13.7875 17.2964 14.7234 17.2964 15.9375V17.5375V19.7875H17.7464C18.6702 19.7875 19.2576 19.1025 19.199 18.3998L19.1964 18.3687V11.2375C19.1964 10.4338 18.8753 9.64689 18.2525 9.10195L18.2509 9.10055L13.2447 4.69499ZM15.7964 16.7875V15.9375C15.7964 15.5517 15.5322 15.2875 15.1464 15.2875H8.94641C8.56062 15.2875 8.29639 15.5517 8.29639 15.9375V16.7875H15.7964ZM8.29639 18.2875H15.7964V19.7875H8.29639V18.2875ZM14.2448 3.57705C12.9606 2.42433 11.0321 2.42435 9.74796 3.5771L4.73298 7.99028L4.71607 8.00719C3.90582 8.81743 3.29639 9.99939 3.29639 11.2375V18.3375C3.29639 19.9518 4.6322 21.2875 6.2464 21.2875H17.7464C19.4116 21.2875 20.8167 19.9898 20.6964 18.3087V11.2375C20.6964 10.0416 20.2178 8.82891 19.2412 7.9739L19.2403 7.97309L14.2448 3.57705Z" fill="black"/>
</svg>

<svg xmlns="http://www.w3.org/2000/svg" fill="none" viewBox="0 0 24 24">
  <path fill="#000" fill-rule="evenodd" d="M13.245 4.695a1.856 1.856 0 0 0-2.497 0l-.006.006L5.76 9.084c-.581.588-.965 1.399-.965 2.154v7.1c0 .785.665 1.45 1.45 1.45h.55v-3.85c0-1.215.936-2.15 2.15-2.15h6.2c1.215 0 2.15.935 2.15 2.15v3.85h.45c.924 0 1.512-.686 1.453-1.388l-.003-.031v-7.131c0-.804-.32-1.591-.944-2.136l-.001-.001-5.006-4.406Zm2.551 12.093v-.85c0-.386-.264-.65-.65-.65h-6.2c-.385 0-.65.264-.65.65v.85h7.5Zm-7.5 1.5h7.5v1.5h-7.5v-1.5Zm5.949-14.71a3.356 3.356 0 0 0-4.497 0L4.733 7.99l-.017.017c-.81.81-1.42 1.992-1.42 3.23v7.1a2.97 2.97 0 0 0 2.95 2.95h11.5c1.666 0 3.07-1.297 2.95-2.978v-7.072c0-1.195-.478-2.408-1.455-3.263l-4.996-4.397Z" clip-rule="evenodd"/>
</svg>
